X: 52
T:Gan Ainm
M:4/4
L:1/8
S:Henry Benagh, Tennessee (fiddle)
R:Reel
D:Session tape - Mullach, Clare 1985
Z:Bernie Stocks
K:D
B2dB A2Bc | dF~F2 DFAd | BG~G2 ABde | faeg fdd2 :| fd~d2 dfaf | edcd efge |\
fd~d2 dfaf | gfeg fdde | fd~d2 dfaf | edcd efge | df~f2 g2fg | afge fdd2 ||
<end>
<start>
